X: 1
T: String Quartet in F Major opus 74 no 2 mvt 1
C: Franz Joseph Haydn
%%abc-version 2.0
%%abcx-abcm2ps-target-version 5.9.1 (29 Sep 2008)
%%abc-creator hum2abc beta
%%abcx-conversion-date 2021/02/14 14:38:24
%%abc-copyright Copyright (c) 1994, 2000 Center for Computer Assisted Research in the Humanities
%%abc-edited-by Frances Bennion
%%abcx-initial-encoding-date 1997/04/15
%%gracespace 0 6 6
%%humdrum-veritas 1019411371
%%humdrum-veritas-data 3002815769
%%linebreak <none>
%%barnumbers 0
L: 1/8
M: 4/4
N: Derived from op74n2-01.krn
Q: "Allegro spirito"
%%staves [1 2 3 4]
V: 1
V: 2
V: 3 clef=alto
V: 4 clef=bass
K: F
[V:1]F4 A4 [I:setbarnb2] |
[V:2]F4 A4 |
[V:3]F,4 A,4 |
[V:4]F,4 A,4 |
[V:1]c2 A2 F2 A2 |
[V:2]c2 A2 F2 A2 |
[V:3]C2 A,2 F,2 A,2 |
[V:4]C2 A,2 F,2 A,2 |
[V:1]cA cA F2 c2 |
[V:2]cA cA F2 c2 |
[V:3]CA, CA, F,2 C2 |
[V:4]CA, CA, F,2 C2 |
[V:1]f2 c2 A2 F2 |
[V:2]f2 c2 A2 F2 |
[V:3]F2 C2 A,2 F,2 |
[V:4]F2 C2 A,2 F,2 |
[V:1]C=B, CB, CE GE |
[V:2]C=B, CB, CE GE |
[V:3]C=B, CB, CE GE |
[V:4]C,=B,, C,B,, C,E, G,E, |
[V:1]C=B, CB, CE GE |
[V:2]C=B, CB, CE GE |
[V:3]C=B, CB, CE GE |
[V:4]C,=B,, C,B,, C,E, G,E, |
[V:1]C2 z2 C2 z3/C/ |
[V:2]C2 z2 C2 z3/C/ |
[V:3]C2 z2 E,2 z3/E,/ |
[V:4]C,2 z2 C,,2 z3/C,,/ |
[V:1]C8 |
[V:2]C8 |
[V:3]E,8 |
[V:4]C,,8 |
[V:1]F4 A4 |
[V:2]A,C A,C A,C A,C |
[V:3]F,A, F,A, F,A, F,A, |
[V:4]F,2 z6 |
[V:1]c2 c2 c2 f2 |
[V:2]A,C A,C A,C A,C |
[V:3]F,A, F,A, F,A, F,A, |
[V:4]F,2 z6 |
[V:1]ef ge c2 e2 |
[V:2]B,C B,C B,C B,C |
[V:3]G,B, G,B, G,B, G,B, |
[V:4]F,2 z6 |
[V:1]f2 f2 fg ab |
[V:2]A,C A,C A,C A,C |
[V:3]F,A, F,A, F,A, F,A, |
[V:4]F,2 z6 |
[V:1]c'4 a2 f2 |
[V:2]B,C EG FC AF |
[V:3]G,B, G,B, A,F CA, |
[V:4]E,4 F,4 |
[V:1]c'4 a2 f2 |
[V:2]B,C EG FC AF |
[V:3]G,B, G,B, A,F CA, |
[V:4]E,4 F,4 |
[V:1]d'4 c'b ag |
[V:2]D6 d2 |
[V:3]F2 ^F2 G2 B2 |
[V:4]B,,4 B,4 |
[V:1]f4 e2 d2 |
[V:2]c6 =B2 |
[V:3]A4 G2 F2 |
[V:4]C8 |
[V:1]c2 c2 c2 d=B |
[V:2]c2 G2 G2 G2 |
[V:3]E2 E2 E2 F2 |
[V:4]C2 C2 C2 C2 |
[V:1]c2 c2 c2 d=B |
[V:2]G2 G2 G2 G2 |
[V:3]E2 E2 E2 F2 |
[V:4]C2 C2 C2 C2 |
[V:1]c2 z2 c2 z2 |
[V:2]E2 z2 G2 z2 |
[V:3]E2 z2 E2 z2 |
[V:4]C2 z2 C2 z2 |
[V:1]c2 z6 |
[V:2]E2 z6 |
[V:3]E2 z6 |
[V:4]C2 z6 |
[V:1]G4 B4 |
[V:2]B,D B,D B,D B,D |
[V:3]G,B, G,B, G,B, G,B, |
[V:4][G,,2G,2] z6 |
[V:1]d2 d2 d2 g2 |
[V:2]B,D B,D B,D B,D |
[V:3]G,B, G,B, G,B, G,B, |
[V:4][G,2G,,2] z6 |
[V:1]^fg af d2 f2 |
[V:2]CD CD CD CD |
[V:3]A,C A,C A,C A,C |
[V:4][G,2G,,2] z6 |
[V:1]g2 g2 ga bc' |
[V:2]B,D B,D B,D B,D |
[V:3]G,B, G,B, G,B, G,B, |
[V:4][G,,2G,2] z6 |
[V:1]d'4 b2 g2 |
[V:2]CD ^FA GD Bd |
[V:3]A,C A,C B,D GB |
[V:4]^F,4 G,4 |
[V:1]e'4 f'2 =b2 |
[V:2]g4 f4- |
[V:3]B4 A2 ^G2 |
[V:4]C,4 D,2 D2 |
[V:1]c'2 a2 b2 e2 |
[V:2]f2 A2 G2 B2 |
[V:3]A2 F2 E2 G2 |
[V:4]C4 C,4 |
[V:1]f8- |
[V:2]A2 ^c2 d2 A2 |
[V:3]F2 A,2 B,2 ^C2 |
[V:4]F,8- |
[V:1]f2 f2 f2 f2 |
[V:2]B2 dB F2 d2 |
[V:3]D6 B,2 |
[V:4]F,8- |
[V:1]f8- |
[V:2]c2 =B2 c2 ^G2 |
[V:3]A,2 ^G,2 A,2 =B,2 |
[V:4]F,8- |
[V:1]f2 f2 f2 f2 |
[V:2]A2 cA F2 z2 |
[V:3]C2 z6 |
[V:4]F,4 A,4 |
[V:1]e2 c2 =B2 d2 |
[V:2]z2 G2 _A2 A2 |
[V:3]z2 E2 F2 F2 |
[V:4]C8- |
[V:1]c2 c'2 c2 f2 |
[V:2]G6 =B2 |
[V:3]E6 D2 |
[V:4]C8- |
[V:1]e2 c2 =Bc dB |
[V:2]c2 G2 _A2 A2 |
[V:3]E2 E2 F2 F2 |
[V:4]C6 C,2 |
[V:1]c6 d=B |
[V:2]G2 G2 G2 _A2 |
[V:3]E2 E2 E2 F2 |
[V:4]C2 C2 C2 C,2 |
[V:1]c2 d=B c2 dB |
[V:2]G2 _A2 G2 A2 |
[V:3]E2 F2 E2 F2 |
[V:4]C2 C2 C2 C,2 |
[V:1]c6 d=B |
[V:2]G2 G2 G2 _A2 |
[V:3]E2 E2 E2 F2 |
[V:4]C2 C2 C2 C,2 |
[V:1]c2 d=B c2 dB |
[V:2]G2 _A2 G2 A2 |
[V:3]E2 F2 E2 F2 |
[V:4]C2 C2 C2 C2 |
[V:1]c4 d2 e2 |
[V:2]G2 c2 =B2 _B2 |
[V:3]E2 z2 z2 C2 |
[V:4]C2 z6 |
[V:1]f2 ^c'2 d'2 a2 |
[V:2]A4 B2 ^c2 |
[V:3]F8- |
[V:4]z8 |
[V:1]b2 d'b f2 d'2 |
[V:2]d6 B2 |
[V:3]F8- |
[V:4]z8 |
[V:1]c'2 =b2 c'2 ^g2 |
[V:2]A2 ^G2 A2 =B2 |
[V:3]F8- |
[V:4]z8 |
[V:1]a2 c'a f2 f'2 |
[V:2]c6 A2 |
[V:3]F8 |
[V:4]z4 z2 F,A, |
[V:1]e'2 c'2 =b2 d'2 |
[V:2]G2 G2 _A2 A2 |
[V:3]C2 E2 F2 F2 |
[V:4]C8- |
[V:1]c'6 f2 |
[V:2]G6 =B2 |
[V:3]E6 D2 |
[V:4]C8- |
[V:1]e2 c2 =B2 d2 |
[V:2]c2 G2 _A2 =B2 |
[V:3]E2 E2 F2 F2 |
[V:4]C8 |
[V:1]ce gc' cc' =B=b |
[V:2]c6 =B2 |
[V:3]c6 =B2 |
[V:4]C6 =B,2 |
[V:1]Ac ea A2 G2 |
[V:2]A6 G2 |
[V:3]A6 G2 |
[V:4]A,6 G,2 |
[V:1]FA cf F2 E2 |
[V:2]F6 E2 |
[V:3]F6 E2 |
[V:4]F,6 E,2 |
[V:1]D2 C2 =B,2 A,2 |
[V:2]D2 C2 =B,2 A,2 |
[V:3]D2 C2 =B,2 A,2 |
[V:4]D,2 C,2 =B,,2 A,,2 |
[V:1]G,2 G2 _A2 ^F2 |
[V:2]G,2 D2 _E2 E2 |
[V:3]G,2 =B,2 C2 C2 |
[V:4]G,,8- |
[V:1]GG, GG _E2 DC |
[V:2]D2 z6 |
[V:3]=B,2 G,4 ^F,2 |
[V:4]G,,2 =B,,2 C,2 _A,,2 |
[V:1]G,2 G2 _A2 ^F2 |
[V:2]z2 D2 _E2 E2 |
[V:3]G,2 =B,2 C2 C2 |
[V:4]G,,8- |
[V:1]GG, GG _E2 DC |
[V:2]D2 G4 ^F2 |
[V:3]=B,2 G,4 C2 |
[V:4]G,,2 =B,,2 C,2 _A,,2 |
[V:1]G4 z4 |
[V:2]G2 z6 |
[V:3]=B,C DC ED FE |
[V:4]G,,2 z6 |
[V:1]z8 |
[V:2]z8 |
[V:3]GF AG F2 ED |
[V:4]z8 |
[V:1]z2 g2 g2 fe |
[V:2]z2 e2 e2 dc |
[V:3]C4 E4 |
[V:4]z8 |
[V:1]d6 ^f2 |
[V:2]=B6 _e2 |
[V:3]G2 G2 G2 c2 |
[V:4]z8 |
[V:1]g6 ^f2 |
[V:2]d6 _e2 |
[V:3]=Bc dB G2 c2 |
[V:4]z8 |
[V:1]g^g af =ge fd |
[V:2]d4 z4 |
[V:3]=B4 z4 |
[V:4]z8 |
[V:1]c4 e4 |
[V:2]z2 G2 G2 FE |
[V:3]z8 |
[V:4]z2 E,2 E,2 D,C, |
[V:1]g2 g2 g2 c'2 |
[V:2]D6 ^F2 |
[V:3]G6 D2 |
[V:4]=B,,6 A,,2 |
[V:1]=bc' d'b g2 c'2 |
[V:2]G4 z2 ^f2 |
[V:3]D2 z2 z2 D2 |
[V:4]G,,4 z2 D,2 |
[V:1]=bc' d'b g2 ^g2 |
[V:2]g4 z2 c2 |
[V:3]D4 z2 E2 |
[V:4]G,4 z4 |
[V:1]^ga ga ^f=g fg |
[V:2]z2 c2 z2 ^c2 |
[V:3]z2 F2 z2 E2 |
[V:4]z8 |
[V:1]ef af ^de ge |
[V:2]d2 =B2 c2 G2 |
[V:3]D2 G2 C2 E2 |
[V:4]z8 |
[V:1]^cd fd =c=B dB |
[V:2]A2 z2 z2 F2 |
[V:3]F2 z2 z2 G,2 |
[V:4]z8 |
[V:1]c2 z6 |
[V:2]E2 z6 |
[V:3]E,G, CE E,2 F,2 |
[V:4]C,,E,, G,,C, C,,C, D,,C, |
[V:1]Gc eg Gg Gf |
[V:2]EG ce E2 D2 |
[V:3]G,2 z6 |
[V:4]E,,C, z6 |
[V:1]Ge z6 |
[V:2]C2 z6 |
[V:3]E,G, CE E,2 F,2 |
[V:4]C,,E,, G,,C, C,,C, D,,C, |
[V:1]Gc eg Gg Gf |
[V:2]EG ce E2 D2 |
[V:3]G,2 z6 |
[V:4]E,,C, z6 |
[V:1]Ge c2 d2 e2 |
[V:2]C2 E2 F2 G2 |
[V:3]z4 z2 C2- |
[V:4]C,E, G,C =B,C _B,C |
[V:1]f2 g2 a2 c'^g |
[V:2]A2 B2 c2 z2 |
[V:3]C2 B,2 A,2 z2 |
[V:4]A,C G,C F,2 z2 |
[V:1]ae f^c dA fd |
[V:2]z4 z2 AF |
[V:3]z8 |
[V:4]z8 |
[V:1]c4 d4 |
[V:2]E4 =B,4 |
[V:3]E4 F4 |
[V:4]G,2 G,2 G,2 G,2 |
[V:1]c4 z4 |
[V:2]C2 z6 |
[V:3]EG ce Ec Fc |
[V:4]C,E, G,C C,2 D,2 |
[V:1]gc' e'g' gg' gf' |
[V:2]eg c'e' e2 d2 |
[V:3]Gc z6 |
[V:4]E,2 z6 |
[V:1]ge' z6 |
[V:2]c2 z6 |
[V:3]EG ce Ec Fc |
[V:4]C,E, G,C C,2 D,2 |
[V:1]gc' e'g' gg' gf' |
[V:2]eg c'e' e2 d2 |
[V:3]Gc z6 |
[V:4]E,2 z6 |
[V:1]ge' c'2 =b2 _b2 |
[V:2]c2 e2 f2 g2 |
[V:3]C4 D2 E2 |
[V:4]C,,C, C,,C, D,,C, E,,C, |
[V:1]a^g ae fe f^c |
[V:2]a2 z6 |
[V:3]F2 z6 |
[V:4]F,,2 z6 |
[V:1]dA f^c dA fc |
[V:2]A2 z2 A2 z2 |
[V:3]D2 z2 D2 z2 |
[V:4]F,2 z2 F,2 z2 |
[V:1]dA f^c dA fd |
[V:2]A2 z2 A2 z2 |
[V:3]D2 z2 D2 z2 |
[V:4]F,2 z2 F,2 z2 |
[V:1]cE Gc e=B ce |
[V:2]E4 z4 |
[V:3]E4 z4 |
[V:4]G,4 z4 |
[V:1]g8 |
[V:2]z2 E2 E2 E2 |
[V:3]z2 C2 C2 C2 |
[V:4]z2 G,2 G,2 G,2 |
[V:1]=B8 |
[V:2]z2 F2 F2 F2 |
[V:3]z2 D2 D2 D2 |
[V:4]z2 ^G,2 G,2 G,2 |
[V:1]c'8 |
[V:2]z2 ^F2 F2 F2 |
[V:3]z2 _E2 E2 E2 |
[V:4]z2 A,2 A,2 A,2 |
[V:1]d8 |
[V:2]z2 =B2 B2 B2 |
[V:3]z2 F2 F2 F2 |
[V:4]z2 G,2 G,2 G,2 |
[V:1]c2 g2 =Bc dB |
[V:2]c2 G2 G2 G2 |
[V:3]EG EG FG FG |
[V:4]C2 C2 C2 C2 |
[V:1]c2 g2 =Bc dB |
[V:2]G2 G2 G2 G2 |
[V:3]EG EG FG FG |
[V:4]C2 C2 C2 C2 |
[V:1]c2 g2 ag gg |
[V:2]G2 g2 =Bc dB |
[V:3]E2 E2 FE DF |
[V:4]C2 z2 G,2 z2 |
[V:1]ag gg ag gg |
[V:2]c2 g2 =Bc dB |
[V:3]E2 E2 FE DF |
[V:4]C2 z2 G,2 z2 |
[V:1]c'3 =b/c'/ g3 ^f/g/ |
[V:2]c3 =B/c/ G3 ^F/G/ |
[V:3]E2 z6 |
[V:4]C,2 z6 |
[V:1]e3 d/e/ c2 c2 |
[V:2]E3 D/E/ C2 C2 |
[V:3]z4 C2 C2 |
[V:4]z4 C2 C2 |
[V:1]c3 =B/c/ G3 ^F/G/ |
[V:2]c3 =B/c/ G3 ^F/G/ |
[V:3]c3 =B/c/ G3 ^F/G/ |
[V:4]C3 =B,/C/ G,3 ^F,/G,/ |
[V:1]E3 D/E/ C2 C2 |
[V:2]E3 D/E/ C2 C2 |
[V:3]E3 D/E/ C2 C2 |
[V:4]E,3 D,/E,/ C,2 C,2 |
[V:1]C2 z2 C2 C2 |
[V:2]C2 z2 C2 C2 |
[V:3]C2 z2 C2 C2 |
[V:4]C,2 z2 C,2 C,2 |
[V:1]C2 z6 |
[V:2]C2 z6 |
[V:3]C2 z6 |
[V:4]C,2 z6 |
[V:1]_D8 |
[V:2]_D8 |
[V:3]_D8 |
[V:4]_D,8 |
[V:1]E8 |
[V:2]E8 |
[V:3]E8 |
[V:4]E,8 |
[V:1]^C8 |
[V:2]^C8 |
[V:3]^C8 |
[V:4]^C,8 |
[V:1]E8 |
[V:2]E8 |
[V:3]E8 |
[V:4]E,8 |
[V:1]A4 ^c4 |
[V:2]^CE CE CE CE |
[V:3]A,^C A,C A,C A,C |
[V:4]A,2 z6 |
[V:1]e2 e2 e2 a2 |
[V:2]^CE CE CE CE |
[V:3]A,^C A,C A,C A,C |
[V:4]A,2 z6 |
[V:1]^ga =bg e2 g2 |
[V:2]DE DE DE DE |
[V:3]=B,D B,D B,D B,D |
[V:4]A,2 z6 |
[V:1]a2 a2 a=b ^c'd' |
[V:2]^CE CE CE CE |
[V:3]A,^C A,C A,C A,C |
[V:4]A,2 z6 |
[V:1]e'4 ^c'2 a2 |
[V:2]DE ^G=B AE ^cA |
[V:3]=B,D B,D ^CA EC |
[V:4]^G,4 A,4 |
[V:1]e'4 ^c'2 a2 |
[V:2]DE ^G=B AE ^cA |
[V:3]=B,D B,D ^CA EC |
[V:4]^G,4 A,4 |
[V:1]^f'4 e'd' ^c'=b |
[V:2]^F6 ^f2 |
[V:3]A2 ^A2 =B2 d2 |
[V:4]D,4 D4 |
[V:1]a4 ^g2 ^f2 |
[V:2]e6 ^d2 |
[V:3]^c4 =B2 A2 |
[V:4]E8 |
[V:1]e2 e2 e2 ^f^d |
[V:2]e2 =B2 B2 B2 |
[V:3]^G2 G2 G2 A2 |
[V:4]E2 E2 E2 E2 |
[V:1]e2 e2 e2 ^f^d |
[V:2]=B2 B2 B2 B2 |
[V:3]^G2 G2 G2 A2 |
[V:4]E2 E2 E2 E2 |
[V:1]e4 d2 c=B |
[V:2]^G4 =B4 |
[V:3]E4 ^G4 |
[V:4]E2 z6 |
[V:1]A4 z4 |
[V:2]E2 c2 c2 =BA |
[V:3]A2 E2 E2 DC |
[V:4]A,,4 C,4 |
[V:1]z8 |
[V:2]^G6 c2 |
[V:3]=B,6 ^D2 |
[V:4]E,2 E,2 E,2 A,2 |
[V:1]z8 |
[V:2]=B6 _B2 |
[V:3]E6 ^C2 |
[V:4]^G,A, =B,G, E,2 =G,2 |
[V:1]z8 |
[V:2]A6 _A2 |
[V:3]D6 =B,2 |
[V:4]^F,G, A,F, D,2 =F,2 |
[V:1]c4 e4 |
[V:2]G2 z6 |
[V:3]E4 G4 |
[V:4]E,2 z6 |
[V:1]g2 g2 g2 fe |
[V:2]=B,4 D4 |
[V:3]=B2 B2 B2 AG |
[V:4]G,,4 =B,,4 |
[V:1]d4 f4 |
[V:2]F2 F2 F2 ED |
[V:3]F4 A4 |
[V:4]D,2 D,2 D,2 C,=B,, |
[V:1]a2 (3Ace a2 a2 |
[V:2]C4 ed ec |
[V:3]c4 A,4 |
[V:4]A,,4 C,4 |
[V:1]a2 =B2 g2 g2 |
[V:2]=B6 _B2 |
[V:3]E8- |
[V:4]E,6 D,2 |
[V:1]gf ed ^cB AG |
[V:2]A8 |
[V:3]E4 E4 |
[V:4]^C,8 |
[V:1]F2 F2 F2 ED |
[V:2]d4 f4 |
[V:3]F2 A2 A2 GF |
[V:4]D,2 z6 |
[V:1]^C6 =C2 |
[V:2]a2 a2 a2 ^f2 |
[V:3]E6 _E2 |
[V:4]z8 |
[V:1]=B,6 _B,2 |
[V:2]g2 g2 g2 e2 |
[V:3]D6 _D2 |
[V:4]z8 |
[V:1]A,2 c'2 c'2 ba |
[V:2]f2 a2 a2 gf |
[V:3]C4 F,4 |
[V:4]F,,4 A,,4 |
[V:1]g2 g2 g2 _a2 |
[V:2]e2 e2 e2 =B2 |
[V:3]C4 z4 |
[V:4]C,2 C,2 C,2 F,2 |
[V:1]g2 z2 z2 =B2 |
[V:2]c2 z2 z2 _A2 |
[V:3]z4 z2 F2 |
[V:4]E,F, G,E, C,2 z2 |
[V:1]c2 z6 |
[V:2]G2 z2 z2 =B,2 |
[V:3]EF GE C2 _A,2 |
[V:4]z4 z2 F,,2 |
[V:1]z8 |
[V:2]C2 z6 |
[V:3]G,2 z6 |
[V:4]E,,F,, G,,E,, C,,2 z2 |
[V:1]z8 |
[V:2]z8 |
[V:3]z8 |
[V:4]z8 |
[V:1]c4 _e4 |
[V:2]_EG EG EG EG |
[V:3]C_E CE CE CE |
[V:4]C2 z6 |
[V:1]g2 g2 g2 c'2 |
[V:2]_EG EG EG EG |
[V:3]C_E CE CE CE |
[V:4]C2 z6 |
[V:1]=bc' d'b fg _af |
[V:2]_A8- |
[V:3][F8-D8] |
[V:4]C8- |
[V:1]d_e fd =Bc dB |
[V:2]A8 |
[V:3][F8D8] |
[V:4]C8- |
[V:1]cd _ec AB cA |
[V:2]GF _EG ED CE |
[V:3]_ED CE CB, A,C |
[V:4]C2 z6 |
[V:1]^FG AF D_E DC |
[V:2]CB, A,C A,4 |
[V:3]A,G, ^F,A, F,4 |
[V:4]z8 |
[V:1]B,C B,A, G,B AG |
[V:2]B,4 ^C4 |
[V:3]G,8 |
[V:4]z4 _E,,4 |
[V:1]^FG AF D2 ^c2 |
[V:2]D4 z4 |
[V:3]D4 z2 G2 |
[V:4]D,,4 z2 _E2 |
[V:1]d6 ^c'2 |
[V:2]z4 z2 g2 |
[V:3]^FG AF D2 _e2 |
[V:4]D2 z6 |
[V:1]d'6 =b2 |
[V:2]^fg af d2 =f2 |
[V:3]d2 z2 z2 d2 |
[V:4]z4 z2 G,2 |
[V:1]c'6 a2 |
[V:2]ef ge c2 _e2 |
[V:3]G4 z2 c2 |
[V:4]C4 z2 F,2 |
[V:1]b2 f2 f2 _ed |
[V:2]d2 d2 d2 cB |
[V:3]B,4 D4 |
[V:4]B,4 z4 |
[V:1]c4 _e4 |
[V:2]A4 c4 |
[V:3]F2 F2 F2 _ED |
[V:4]z8 |
[V:1]g2 g2 g2 f_e |
[V:2]_e2 e2 e2 dc |
[V:3]C4 _E4 |
[V:4]z8 |
[V:1]d2 d2 d2 _e2 |
[V:2]=B6 c2 |
[V:3]G6 ^F2 |
[V:4]z8 |
[V:1]d2 d2 d2 _e2 |
[V:2]=B6 c2 |
[V:3]G6 ^F2 |
[V:4]z8 |
[V:1]d2 d2 d2 _e2 |
[V:2]=B8- |
[V:3]G8- |
[V:4]z8 |
[V:1]d2 d2 d2 _e2 |
[V:2]B8 |
[V:3]G8 |
[V:4]z8 |
[V:1]d2 d2 d2 _e2 |
[V:2]B8 |
[V:3]G8 |
[V:4]z8 |
[V:1]d2 d2 d2 _e2 |
[V:2]A8 |
[V:3]^F8 |
[V:4]z8 |
[V:1]d2 d2 d2 _e2 |
[V:2]_A8- |
[V:3]F8 |
[V:4]z8 |
[V:1]d_e fg _ag af |
[V:2]A4 D4 |
[V:3][F8B,8] |
[V:4]z8 |
[V:1]g_a bg _ef ge |
[V:2]_E2 G2 B2 _AG |
[V:3][B,6G6] _E2 |
[V:4]_E,,4 G,,4 |
[V:1]d_e fe dc BA |
[V:2]F8- |
[V:3]B,6 C2 |
[V:4]B,,2 B,,2 B,,2 _E,2 |
[V:1]Bc B_A GF _ED |
[V:2]F2 B4 B2- |
[V:3]B,2 F4 F2 |
[V:4]D,2 D,2 D,2 _A,2 |
[V:1]_E4 G4 |
[V:2]B_A GB GF _EG |
[V:3]_E8 |
[V:4]G,_A, B,G, _E,F, G,E, |
[V:1]B2 B2 B2 _e2 |
[V:2]F_E DE FE DC |
[V:3]B,8 |
[V:4]D,_E, F,E, D,C, B,,A,, |
[V:1]d_e fe dB cd |
[V:2]DC D_E FD EF |
[V:3]B,8 |
[V:4]B,,6 _A,,2 |
[V:1]_ef g_a ba gf |
[V:2]G2 z6 |
[V:3]_E,2 B,4 =B,2 |
[V:4]G,,2 _E,4 _D,2 |
[V:1]ef gf ec de |
[V:2]z2 c4 B2 |
[V:3]C2 EF GE FG |
[V:4]C,2 C,,2 z4 |
[V:1]fg _ab c'b ag |
[V:2]_A2 z6 |
[V:3]_A2 C4 ^C2 |
[V:4]z2 F,4 _E,2 |
[V:1]^fg ag fd ef |
[V:2]z2 d4 c2 |
[V:3]D2 ^FG AF GA |
[V:4]D,2 D,,2 z4 |
[V:1]ga ba gf ed |
[V:2]Bc dc BA GF |
[V:3]B2 G,2 B,2 =B,2 |
[V:4]z2 G,,4 ^G,,2 |
[V:1]^cd ec GA BG |
[V:2]E8 |
[V:3]^C8 |
[V:4]A,,8- |
[V:1]FG AF DE FD |
[V:2]F8 |
[V:3]D4 ^G,4 |
[V:4]A,,8- |
[V:1]^CD EC A,=B, CA, |
[V:2]E8 |
[V:3]A,4 ^C4 |
[V:4]A,,8- |
[V:1]DE FD ^G,A, =B,G, |
[V:2]F6 ^G,2 |
[V:3]D6 ^G,2 |
[V:4]A,,8 |
[V:1]A,^G, A,G, A,^C EC |
[V:2]A,^G, A,G, A,^C EC |
[V:3]A,^G, A,G, A,^C EC |
[V:4]A,,^G,, A,,G,, A,,^C, E,C, |
[V:1]A,^G, A,G, A,^C EC |
[V:2]A,^G, A,G, A,^C EC |
[V:3]A,^G, A,G, A,^C EC |
[V:4]A,,^G,, A,,G,, A,,^C, E,C, |
[V:1]A,2 z2 A,2 z3/A,/ |
[V:2]A,2 z2 A,2 z3/A,/ |
[V:3]A,2 z2 A,2 z3/A,/ |
[V:4]A,,2 z2 A,,2 z3/A,,/ |
[V:1]A,4 z4 |
[V:2]A,4 z4 |
[V:3]A,4 z4 |
[V:4]A,,4 z4 |
[V:1]z8 |
[V:2]z8 |
[V:3]z8 |
[V:4]z8 |
[V:1]D8 |
[V:2]D8 |
[V:3]D,8 |
[V:4]D,8 |
[V:1]E8 |
[V:2]E8 |
[V:3]E,8 |
[V:4]E,8 |
[V:1]F4 A4 |
[V:2]A,C A,C A,C A,C |
[V:3]F,A, F,A, F,A, F,A, |
[V:4]F,2 z6 |
[V:1]c2 c2 c2 f2 |
[V:2]A,C A,C A,C A,C |
[V:3]F,A, F,A, F,A, F,A, |
[V:4]F,2 z6 |
[V:1]ef ge c2 e2 |
[V:2]B,C B,C B,C B,C |
[V:3]G,B, G,B, G,B, G,B, |
[V:4]F,2 z6 |
[V:1]f2 f2 fg ab |
[V:2]A,C A,C A,C A,C |
[V:3]F,A, F,A, F,A, F,A, |
[V:4]F,2 z6 |
[V:1]c'4 a2 f2 |
[V:2]B,C EG FC AF |
[V:3]G,B, G,B, A,F CA, |
[V:4]E,4 F,4 |
[V:1]c'4 a2 f2 |
[V:2]B,C EG FC AF |
[V:3]G,B, G,B, A,F CA, |
[V:4]E,4 F,4 |
[V:1]d'4 c'b ag |
[V:2]D6 d2 |
[V:3]F2 ^F2 G2 B2 |
[V:4]B,,4 B,4 |
[V:1]f4 e2 d2 |
[V:2]c6 =B2 |
[V:3]A4 G2 F2 |
[V:4]C8 |
[V:1]c2 c2 c2 d=B |
[V:2]c2 G2 G2 G2 |
[V:3]E2 E2 E2 F2 |
[V:4]C2 C2 C2 C2 |
[V:1]c2 c2 c2 d=B |
[V:2]G2 G2 G2 G2 |
[V:3]E2 E2 E2 F2 |
[V:4]C2 C2 C2 C2 |
[V:1]c2 z2 c2 z2 |
[V:2]E2 z2 G2 z2 |
[V:3]E2 z2 E2 z2 |
[V:4]C2 z2 C2 z2 |
[V:1]c2 z6 |
[V:2]E2 z6 |
[V:3]E2 z6 |
[V:4]C2 z6 |
[V:1]G4 B4 |
[V:2]B,D B,D B,D B,D |
[V:3]G,B, G,B, G,B, G,B, |
[V:4][G,2G,,2] z6 |
[V:1]d2 d2 d2 g2 |
[V:2]B,D B,D B,D B,D |
[V:3]G,B, G,B, G,B, G,B, |
[V:4][G,2G,,2] z6 |
[V:1]^fg af d2 f2 |
[V:2]CD CD CD CD |
[V:3]A,C A,C A,C A,C |
[V:4][G,,2G,2] z6 |
[V:1]g2 g2 ga bc' |
[V:2]B,D B,D B,D B,D |
[V:3]G,B, G,B, G,B, G,B, |
[V:4][G,,2G,2] z6 |
[V:1]d'4 b2 g2 |
[V:2]CD ^FA GD Bd |
[V:3]A,C A,C B,D GB |
[V:4]^F,4 G,4 |
[V:1]e'4 f'2 =b2 |
[V:2]g4 f4- |
[V:3]B4 A2 ^G2 |
[V:4]C,4 D,2 D2 |
[V:1]c'2 a2 b2 e2 |
[V:2]f2 A2 G2 B2 |
[V:3]A2 F2 E2 G2 |
[V:4]C4 C,4 |
[V:1]f8- |
[V:2]A2 ^c2 d2 A2 |
[V:3]F2 A,2 B,2 ^C2 |
[V:4]F,8- |
[V:1]f2 f2 f2 f2 |
[V:2]B2 dB F2 d2 |
[V:3]D6 B,2 |
[V:4]F,8- |
[V:1]f8- |
[V:2]c2 =B2 c2 ^G2 |
[V:3]A,2 ^G,2 A,2 =B,2 |
[V:4]F,8- |
[V:1]f2 f2 f2 ^c'2 |
[V:2]A2 cA F2 F2 |
[V:3]C2 z2 z2 A2 |
[V:4]F,4 z4 |
[V:1]d'2 ^c'2 d'2 a2 |
[V:2]F8- |
[V:3]B2 A2 B2 ^c2 |
[V:4]z8 |
[V:1]b2 d'b f2 d'2 |
[V:2]F2 F2 F2 F2 |
[V:3]d6 B2 |
[V:4]z8 |
[V:1]c'2 =b2 c'2 ^g2 |
[V:2]F8- |
[V:3]A2 ^G2 A2 =B2 |
[V:4]z8 |
[V:1]a2 c'a f2 f'2 |
[V:2]F2 F2 F2 A2 |
[V:3]c6 c2 |
[V:4]z4 z2 F,A, |
[V:1]e'2 c'2 =b2 d'2 |
[V:2]G2 G2 _A2 A2 |
[V:3]E2 E2 F2 F2 |
[V:4]C8- |
[V:1]c'6 _e'2 |
[V:2]G4 E2 A2 |
[V:3]EF GE C2 c2 |
[V:4]C6 F,2 |
[V:1]d'2 b2 a2 c'2 |
[V:2]B2 F4 F2 |
[V:3]F2 D2 _E2 E2 |
[V:4]B,8- |
[V:1]b6 d'2 |
[V:2]F4 D2 z2 |
[V:3]D_E FD B,2 z2 |
[V:4]B,4 z4 |
[V:1]c'2 a2 b2 d'2 |
[V:2]z2 d2 B2 z2 |
[V:3]z2 ^F2 G2 z2 |
[V:4]z8 |
[V:1]c'2 g2 a2 c'2 |
[V:2]z2 c2 A2 A2 |
[V:3]z2 E2 F2 A,2 |
[V:4]z4 z2 F,,2 |
[V:1]b2 a2 g2 f2 |
[V:2]d2 c2 B2 A2 |
[V:3]B,6 =B,2 |
[V:4]B,,6 =B,,2 |
[V:1]e4 z4 |
[V:2][C4G4] E4 |
[V:3]C8 |
[V:4]C,,C, C,,C, C,,C, C,,C, |
[V:1]z8 |
[V:2]G2 G2 G2 E2 |
[V:3]E8 |
[V:4]C,,C, C,,C, C,,C, C,,C, |
[V:1]=B4 d4 |
[V:2][=B,8-_A8] |
[V:3][F8-D8] |
[V:4]C,,C, C,,C, C,,C, C,,C, |
[V:1]f2 f2 f2 =B2 |
[V:2][=B,8A8] |
[V:3][F8D8] |
[V:4]C,,C, C,,C, C,,C, C,,C, |
[V:1]c4 e2 gb |
[V:2][B,8-G8] |
[V:3]E8- |
[V:4]C,,C, C,,C, C,,C, C,,C, |
[V:1]d'2 d'2 d'2 e'2 |
[V:2][B,8G8] |
[V:3]E8 |
[V:4]C,,C, C,,C, C,,C, C,,C, |
[V:1]f'2 f'2 f'e' d'c' |
[V:2][A,4F4] f4- |
[V:3]C2 C2 A2 A2 |
[V:4]A,,4 z4 |
[V:1]bc' d'b ga bg |
[V:2]f4 e4- |
[V:3]G2 G2 c2 c2 |
[V:4]z8 |
[V:1]ab c'a fg af |
[V:2]e4 d4- |
[V:3]F2 F2 B2 B2 |
[V:4]z8 |
[V:1]ga bg ef ge |
[V:2]d4 c4- |
[V:3]E2 E2 A2 A2 |
[V:4]z8 |
[V:1]fg af de fd |
[V:2]c4 =B4 |
[V:3]D2 D2 G2 G2 |
[V:4]z8 |
[V:1]ed c=B cd ef |
[V:2]c4 z4 |
[V:3]G4 z4 |
[V:4]C,4 z4 |
[V:1]gf ed ef ga |
[V:2]c4 z4 |
[V:3]E4 z4 |
[V:4]C,4 z4 |
[V:1]bg ge ec cB |
[V:2][E8-G,8] |
[V:3]B,8- |
[V:4]C,8- |
[V:1]BG GE EC CB, |
[V:2][E8G,8] |
[V:3]B,8 |
[V:4]C,8 |
[V:1]A,2 z6 |
[V:2][F2A,2] z6 |
[V:3]A,C FA A,F B,F |
[V:4]F,,A,, C,F, F,,2 G,,2 |
[V:1]cf ac' cc' cb |
[V:2]Ac fa A2 G2 |
[V:3]CF z6 |
[V:4]A,,2 z6 |
[V:1]ca z6 |
[V:2]F2 z6 |
[V:3]A,C FA A,F B,F |
[V:4]F,,A,, C,F, F,,2 G,,2 |
[V:1]cf ac' cc' cb |
[V:2]Ac fa A2 G2 |
[V:3]CF z6 |
[V:4]A,,2 z6 |
[V:1]ca f2 e2 _e2 |
[V:2]F2 A2 B2 c2 |
[V:3]z2 F4 F2 |
[V:4]z2 F,2 G,2 A,2 |
[V:1]de fe f^f gf |
[V:2]d2 z2 d2 z2 |
[V:3]F2 z2 D2 z2 |
[V:4]B,2 z2 B,2 z2 |
[V:1]gd b^f gd bf |
[V:2]G2 z2 G2 z2 |
[V:3]D2 z2 D2 z2 |
[V:4]B,2 z2 B,2 z2 |
[V:1]gd b^f gd be |
[V:2]G2 z2 z2 EG |
[V:3]D2 z2 z2 C2 |
[V:4]B,2 z2 z2 B,2 |
[V:1]fc ae fc ae |
[V:2]F2 z2 F2 z2 |
[V:3]C2 z2 C2 z2 |
[V:4]A,2 z2 A,2 z2 |
[V:1]fc ae fc ac |
[V:2]F2 z2 z2 F2 |
[V:3]C2 z2 z2 F2 |
[V:4]A,2 z2 z2 F,2 |
[V:1]=B8 |
[V:2]FD _AE FD AF |
[V:3]D2 z2 z2 F2 |
[V:4]G,8 |
[V:1]B8 |
[V:2]G8 |
[V:3]EC GF EC GE |
[V:4]C,8 |
[V:1]Ac fc dA BG |
[V:2]F6 DB, |
[V:3]F2 A,2 B,2 D2 |
[V:4]F,2 A,,2 B,,2 B,,2 |
[V:1]FA cA fc af |
[V:2]A,2 z6 |
[V:3]C4 z4 |
[V:4]C,8 |
[V:1]c'8 |
[V:2]z2 A2 A2 A2 |
[V:3]z2 F2 F2 F2 |
[V:4]z2 C,2 C,2 C,2 |
[V:1]e8 |
[V:2]z2 B2 B2 B2 |
[V:3]z2 G2 G2 G2 |
[V:4]z2 ^C,2 C,2 C,2 |
[V:1]F8 |
[V:2]z2 =B,2 B,2 B,2 |
[V:3]z2 _A,2 A,2 A,2 |
[V:4]z2 D,2 D,2 D,2 |
[V:1]g8 |
[V:2]z2 e2 e2 e2 |
[V:3]z2 B2 B2 B2 |
[V:4]z2 C,2 C,2 C,2 |
[V:1]f2 c'2 ef ge |
[V:2]f2 c4 c2- |
[V:3]Ac Ac Bc Bc |
[V:4]F,2 F,2 F,2 F,2 |
[V:1]f2 c'2 ef ge |
[V:2]c2 c4 c2- |
[V:3]Ac Ac Bc Bc |
[V:4]F,2 F,2 F,2 F,2 |
[V:1]f2 c2 dc cc |
[V:2]c2 c2 EF GE |
[V:3]A2 A,2 B,A, G,B, |
[V:4]F,2 z2 C,2 z2 |
[V:1]dc cc dc cc |
[V:2]F2 c2 EF GE |
[V:3]A,2 A,2 B,A, G,B, |
[V:4]F,2 z2 C,2 z2 |
[V:1]f3 e/f/ c3 =B/c/ |
[V:2]F3 E/F/ c3 =B/c/ |
[V:3]A,2 z2 c3 =B/c/ |
[V:4]F3 E/F/ C3 =B,/C/ |
[V:1]A3 G/A/ F3 E/F/ |
[V:2]A3 G/A/ F3 E/F/ |
[V:3]A3 G/A/ F3 E/F/ |
[V:4]A,3 G,/A,/ F,3 E,/F,/ |
[V:1]_E3 D/E/ C3 B,/C/ |
[V:2]_E3 D/E/ C3 B,/C/ |
[V:3]_E3 D/E/ C3 B,/C/ |
[V:4]_E,3 D,/E,/ C,3 B,,/C,/ |
[V:1]A,3 G,/A,/ A3 G/A/ |
[V:2]A,3 G,/A,/ C3 B,/C/ |
[V:3]A,3 G,/A,/ _E,3 D,/E,/ |
[V:4]A,,3 G,,/A,,/ _E,,3 D,,/E,,/ |
[V:1]BB, DF BD FB |
[V:2]D2 D2 D2 D2 |
[V:3]D,2 F2 F2 F2 |
[V:4]D,,2 B,,2 B,,2 B,,2 |
[V:1]dF Bd fe fd |
[V:2]F2 F2 d^c dB |
[V:3]D2 D2 B,2 B,2 |
[V:4]B,,2 B,,2 B,,2 B,,2 |
[V:1]c2 B2 A2 G2 |
[V:2]A2 G2 F2 E2 |
[V:3]C2 C2 C2 C2 |
[V:4]C,2 C,2 C,2 C,2 |
[V:1]F4 A4 |
[V:2]F4 A4 |
[V:3]F,4 A,4 |
[V:4]F,4 A,4 |
[V:1]c2 c2 c2 f2 |
[V:2]c2 c2 c2 f2 |
[V:3]C2 C2 C2 F2 |
[V:4]C2 C2 C2 F2 |
[V:1]ef ge ^c2 d2 |
[V:2]ef ge ^c2 d2 |
[V:3]EF GE ^C2 D2 |
[V:4]EF GE ^C2 D2 |
[V:1]cd _ec A2 B2 |
[V:2]cd _ec A2 B2 |
[V:3]CD _EC A,2 B,2 |
[V:4]CD _EC A,2 B,2 |
[V:1]^F2 G2 E2 =F2 |
[V:2]^F2 G2 E2 =F2 |
[V:3]^F,2 G,2 E,2 =F,2 |
[V:4]^F,2 G,2 E,2 =F,2 |
[V:1]G2 z2 E2 z2 |
[V:2]D2 z2 B,2 z2 |
[V:3]B,2 z2 G,2 z2 |
[V:4]B,,2 z2 C,2 z2 |
[V:1]F2 z2 [g2c2E2] z2 |
[V:2]A,2 z2 [G2B2e2] z2 |
[V:3]F,2 z2 C2 z2 |
[V:4]F,2 z2 C,2 z2 |
[V:1][a2c2F2] z6 |]
[V:2][f2A2F2] z6 |]
[V:3]F2 z6 |]
[V:4]F,,2 z6 |]

